X:1
T:Queens, 87.87 D
T:Queens, 87.87 D
T:Marion B. Smith, 1909
T:Public Domain Courtesy of the Cyber Hymnal™
C:Marion B. Smith, 1909
Z:Public Domain
Z:Courtesy of the Cyber Hymnal™
%%score ( 1 2 ) ( 3 4 )
L:1/8
Q:1/4=85
M:6/8
K:Bb
V:1 treble 
V:2 treble 
V:3 bass 
V:4 bass 
V:1
 [DF]2 [^C=E] [DF]2 [_EG] | [DF][DB][Dd] [=Ed]2 [Ec] | [EG]2 [FB] [EG]2 [EA] | %3
 [EG][GB][G^c] [^Fd]3 | [Fd]2 [Fd] [=E^c]2 [Fd] | ([Gf][Ge])[GB] [=EB]2 [Ec] | %6
 [Fd]2 [Fd] [Ge]2 [Fd] | d2 [_Ec] [DB]3 ||[M:4/4][Q:1/4=105] FF | [DB]2 [DB]2 z2 FF | %10
 [Fd]2 [Fd]2 z2 [FB][FB] | [GB]3 [GB] [Gc]2 [G^c]2 | [^Fd]6 [=Fd][Fd] | [Fd]2 [Fd]2 [=E^c]2 [Fd]2 | %14
 ([Gf]2 [Ge]2) ([Fd]2 [Ec]2) | [EB][EA][DB][Ec] [Fd]2 [Ec]2 | [DB]6 |] %17
V:2
 x6 | x6 | x6 | x6 | x6 | x6 | x6 | (F=E) x4 ||[M:4/4] FF | x6 FF | x8 | x8 | x8 | x8 | x8 | x8 | %16
 x6 |] %17
V:3
 (B,,[D,F,])[D,F,] (B,,[D,F,])[D,F,] | (B,,[D,F,])[D,F,] (C,[=E,B,])[E,B,] | %2
 (F,,[F,A,])[F,A,] (F,,[F,A,])[F,A,] | (F,,[G,B,])[E,G,] [D,A,]3 | %4
 (B,,[F,B,])[F,B,] (B,,[F,B,])[F,B,] | (E,[G,B,])[G,B,] (C,[G,C])[G,C] | %6
 (B,,[F,B,])[F,B,] (B,,[F,B,])[F,B,] | [F,B,]2 [F,A,] [B,,F,]3 ||[M:4/4] z2 | %9
 [B,,F,]2 [B,,F,]2 z2 F,F, | [B,,F,]2 [B,,F,]2 z2 [B,,B,]2 | [E,B,]3 [E,B,] [E,A,]2 [E,G,]2 | %12
 [D,A,]6 [B,,B,][B,,B,] | [B,,B,]2 [B,,B,]2 [B,,B,]2 [B,,B,]2 | %14
 ([E,B,]2 [E,B,]2) ([F,B,]2 [F,A,]2) | [E,G,][E,G,][F,B,][F,A,] [F,B,]2 [F,A,]2 | [B,,F,]6 |] %17
V:4
 x6 | x6 | x6 | x6 | x6 | x6 | x6 | x6 ||[M:4/4] x2 | x6 F,F, | x8 | x8 | x8 | x8 | x8 | x8 | x6 |] %17

